packages/vitzik-app/public/img/svg/instruments/instrument_Melodic Tom.svg

<?xml version="1.0" encoding="utf-8"?>
<!-- Generator: Adobe Illustrator 25.0.0, SVG Export Plug-In . SVG Version: 6.00 Build 0)  -->
<svg version="1.1" xmlns="http://www.w3.org/2000/svg" xmlns:xlink="http://www.w3.org/1999/xlink" x="0px" y="0px"
	 viewBox="0 0 48 48" style="enable-background:new 0 0 48 48;" xml:space="preserve">
<style type="text/css">
	.st0{fill:#F5DAA7;}
	.st1{fill:#EDC472;}
	.st2{fill:#BC9B5B;}
	.st3{fill:#9A6A53;}
	.st4{fill:#855B47;}
	.st5{fill:#F4E2C1;}
	.st6{fill:#F7F7F7;}
	.st7{fill:#C8C3CA;}
	.st8{fill:#B78C7A;}
	.st9{fill:#7A5341;}
	.st10{fill:#704C3B;}
	.st11{fill:#CF9875;}
	.st12{fill:#C7865B;}
	.st13{clip-path:url(#SVGID_3_);}
	.st14{clip-path:url(#SVGID_4_);fill:#FFFFFF;stroke:#231F20;stroke-miterlimit:10;}
	.st15{fill:#FFFFFF;stroke:#231F20;stroke-miterlimit:10;}
	.st16{fill:none;stroke:#000000;stroke-width:4.5;stroke-miterlimit:10;}
	.st17{fill:#463C4B;}
	.st18{fill:#555A6E;}
	.st19{fill:#F06423;}
	.st20{fill:#FAA51E;}
	.st21{fill:#D7E6F0;}
	.st22{fill:#DADADA;}
	.st23{fill:#C4C6C6;}
	.st24{fill:#EDEEEF;}
	.st25{fill:#797981;}
	.st26{fill:#5A5A63;}
	.st27{fill:#494951;}
	.st28{fill:#29BAED;}
	.st29{fill:#DD9554;}
	.st30{fill:#CC8244;}
	.st31{fill:#805333;}
	.st32{fill:#A56A43;}
	.st33{fill:#CB8252;}
	.st34{fill:#ECF0F1;}
	.st35{fill:#603E26;}
	.st36{fill:#F9EAB0;}
	.st37{fill:#F5EFCA;}
	.st38{fill:#464F5D;}
	.st39{fill:#F3D55B;}
	.st40{fill:#6F6571;}
	.st41{fill:#4B3F4E;}
	.st42{fill:#5D5360;}
	.st43{fill:#857E87;}
	.st44{fill:#ECEAEC;}
	.st45{fill:#DAD8DB;}
	.st46{fill:#B3E59F;}
	.st47{fill:#CCF49F;}
	.st48{fill:#792A47;}
	.st49{fill:#A62B38;}
	.st50{fill:#D22D28;}
	.st51{fill:#FF2F19;}
	.st52{fill:#FFFFFF;}
	.st53{fill:#202666;}
	.st54{fill:#FDE6BB;}
	.st55{fill:#FE501F;}
	.st56{fill:#FD7226;}
	.st57{fill:#FCCD76;}
	.st58{fill:#FB932C;}
	.st59{fill:#4D2857;}
	.st60{fill:#B19046;}
	.st61{fill:#F0C419;}
	.st62{fill:#24AE5F;}
	.st63{fill:#E64C3C;}
	.st64{fill:#3B97D3;}
	.st65{fill:#E74444;}
	.st66{fill:#CE3536;}
	.st67{fill:#D9DBDD;}
	.st68{fill:#E8EDF1;}
	.st69{fill:#F3DB70;}
	.st70{fill:#D5DAF3;}
	.st71{fill:#A2AEE6;}
	.st72{fill:#FFC344;}
	.st73{fill:#FFE177;}
	.st74{fill:#BEC6ED;}
	.st75{fill:#8795DE;}
	.st76{fill-rule:evenodd;clip-rule:evenodd;fill:#A46A5A;}
	.st77{fill-rule:evenodd;clip-rule:evenodd;fill:#845252;}
	.st78{fill-rule:evenodd;clip-rule:evenodd;fill:#FFD05B;}
	.st79{fill-rule:evenodd;clip-rule:evenodd;fill:#704242;}
	.st80{fill-rule:evenodd;clip-rule:evenodd;fill:#FFC244;}
	.st81{fill-rule:evenodd;clip-rule:evenodd;fill:#596C76;}
	.st82{fill-rule:evenodd;clip-rule:evenodd;fill:#465A61;}
	.st83{fill:#A46A5A;}
	.st84{fill:#607D8B;}
	.st85{fill:#9C27B0;}
	.st86{fill:#03A9F4;}
	.st87{fill:#8BC34A;}
	.st88{fill:#FFC107;}
	.st89{fill:#FF9800;}
	.st90{fill:#F44336;}
	.st91{fill:#D7CCC8;}
	.st92{fill:#F57C00;}
	.st93{fill:#F9BB4B;}
	.st94{fill:#FCF05A;}
	.st95{fill:#66342E;}
	.st96{fill:#D3843D;}
	.st97{fill:#704C55;}
	.st98{fill:#5A344B;}
	.st99{fill:#E63950;}
	.st100{fill:#EFE2DD;}
	.st101{fill:#FF435B;}
	.st102{fill:#FFF5F5;}
	.st103{fill:#9B786F;}
	.st104{fill:#925CB4;}
	.st105{fill:#814BA2;}
	.st106{fill:#6F3F8A;}
	.st107{fill:#FFD185;}
	.st108{fill:#FFBA48;}
	.st109{fill:#FF5A35;}
	.st110{fill:#FF7A3C;}
	.st111{fill:#FFE8C2;}
	.st112{fill:#4F4F4F;}
	.st113{fill:#FF3A2F;}
	.st114{fill:#353535;}
	.st115{fill:#FB4A59;}
	.st116{fill:#F82F40;}
	.st117{fill:#3F5959;}
	.st118{fill:#384848;}
	.st119{fill:#EFF5F6;}
	.st120{fill:#CBE5E7;}
	.st121{fill:#FCC16D;}
	.st122{fill:#FCB44D;}
	.st123{fill:#A66856;}
	.st124{fill:#735458;}
	.st125{fill:#FFDEA9;}
	.st126{fill:#5C4346;}
	.st127{fill:#8F5040;}
	.st128{fill:#595959;}
	.st129{fill:#7F221C;}
	.st130{fill:#913122;}
	.st131{fill:#FFEFB0;}
	.st132{fill:#DB2116;}
	.st133{fill:#883F2E;}
	.st134{fill:#A44F3E;}
	.st135{fill:#D8AA5E;}
	.st136{fill:#E9B665;}
	.st137{fill:#E19974;}
	.st138{fill:#FFEFD2;}
	.st139{fill:#D7D0D6;}
	.st140{fill:#E8AD8C;}
	.st141{fill:#6D3326;}
	.st142{fill:#BA5D4F;}
	.st143{fill:#F5A871;}
	.st144{fill:#E89A5E;}
	.st145{fill:#A34F41;}
	.st146{fill:#D68A5A;}
	.st147{fill:#FFE5C4;}
	.st148{fill:#FDD1A7;}
	.st149{fill:#873F30;}
	.st150{fill:#C86F5C;}
	.st151{fill:#6C3328;}
	.st152{fill:#54231D;}
	.st153{fill:#B5B1B3;}
	.st154{fill:#FEC93E;}
	.st155{fill:#EFB533;}
	.st156{fill:#F7A738;}
	.st157{fill:#EA952F;}
	.st158{fill:#FD6E2E;}
	.st159{fill:#EA551B;}
	.st160{fill:#F5A257;}
	.st161{fill:#DB8F52;}
	.st162{fill:#75360D;}
	.st163{fill:#FFBF7B;}
	.st164{fill:#00CCB2;}
	.st165{fill:#00AB94;}
	.st166{fill:#FEA832;}
	.st167{fill:#FF8700;}
	.st168{fill:#00EED0;}
	.st169{fill:#FFD400;}
	.st170{fill:#FDBF00;}
	.st171{fill:#08B865;}
	.st172{fill:#E41F2D;}
	.st173{fill:#FD4755;}
	.st174{fill:#FB2B3A;}
	.st175{fill:#FED2A4;}
	.st176{fill:#FFE5C2;}
	.st177{fill:#FFBD86;}
	.st178{fill:#FE99A0;}
	.st179{fill:#FD8087;}
	.st180{fill:#C57A44;}
	.st181{fill:#09A755;}
	.st182{fill:#FEDF30;}
	.st183{fill:#FED402;}
	.st184{fill:#FAC600;}
	.st185{fill:#46CC8D;}
	.st186{fill:#00C27A;}
	.st187{fill:#FE7701;}
	.st188{fill:#FE860A;}
	.st189{fill:#C41926;}
	.st190{fill:#E89C5D;}
	.st191{fill:#F4B37D;}
	.st192{fill:#E8626C;}
	.st193{fill:#40C6C2;}
	.st194{fill:#FFC999;}
	.st195{fill:#4A4A68;}
	.st196{fill:#333356;}
	.st197{fill:#EDEDED;}
	.st198{fill:#C9C9C9;}
	.st199{fill:#FF9900;}
	.st200{fill:#FFCE00;}
	.st201{fill:#FBBD00;}
	.st202{fill:#ED8100;}
	.st203{fill:#FFE431;}
	.st204{fill:#FF9F00;}
	.st205{fill:#FFE666;}
	.st206{fill:#FFBF00;}
	.st207{fill:#FCCD31;}
	.st208{fill:#F2B016;}
	.st209{fill:#4A4D4F;}
	.st210{fill:#D3CBC2;}
	.st211{fill:#6D7072;}
	.st212{fill:#BAAFA6;}
	.st213{fill:#888C8E;}
	.st214{fill:#B4B4B4;}
	.st215{fill:#FFE999;}
	.st216{fill:#FFCF3B;}
	.st217{fill:#C1C1C1;}
	.st218{fill:#FFBC19;}
	.st219{fill:#94E6FF;}
	.st220{fill:#315F83;}
	.st221{fill:#267EA8;}
	.st222{fill:#3B3F5F;}
	.st223{fill:#D8F2FB;}
	.st224{fill:#35495E;}
	.st225{fill:#556080;}
	.st226{fill:#E4C05C;}
	.st227{fill:#E4C05C;stroke:#E4C05C;stroke-width:2;stroke-linecap:round;stroke-linejoin:round;stroke-miterlimit:10;}
	.st228{fill:#B57F5F;}
	.st229{fill:#966A5B;}
	.st230{fill:#FFD15B;}
	.st231{fill:#A5C3DC;}
	.st232{fill:#8697CB;}
	.st233{fill:#E0E0E0;}
	.st234{fill:#CCCCCC;}
	.st235{fill:#8E8E8E;}
	.st236{fill:#A0A0A0;}
	.st237{fill:#E13732;}
	.st238{fill:#F05055;}
	.st239{fill:#D24605;}
	.st240{fill:#FFCE53;}
	.st241{fill:#FFB833;}
	.st242{fill:#4999D1;}
	.st243{fill:#43AAF0;}
	.st244{fill:#FF2E23;}
	.st245{fill:#FF4A26;}
	.st246{fill:#C6805D;}
	.st247{fill:#77CC7D;}
	.st248{fill:#52BD7E;}
	.st249{fill:#98DB7C;}
	.st250{fill:#D48C64;}
	.st251{fill:#FFD18D;}
	.st252{fill:#FBBD80;}
	.st253{fill:#F3B573;}
	.st254{fill:#434A54;}
	.st255{fill:#DA4453;}
	.st256{fill:#FFCE54;}
	.st257{fill:#ED5564;}
	.st258{fill-rule:evenodd;clip-rule:evenodd;fill:#4BC3EF;}
	.st259{fill-rule:evenodd;clip-rule:evenodd;fill:#1BADDE;}
	.st260{fill-rule:evenodd;clip-rule:evenodd;fill:#DBD8DB;}
	.st261{fill-rule:evenodd;clip-rule:evenodd;fill:#C9BFC8;}
	.st262{fill:#421815;}
	.st263{fill:#FCB982;}
	.st264{fill:#FDDBBF;}
	.st265{fill:#FCCA9F;}
	.st266{fill:#C6865C;}
	.st267{fill:#B16E3D;}
	.st268{fill:#454545;}
	.st269{fill:#EFECEF;}
	.st270{fill:#E2DFE2;}
	.st271{fill:#3F3736;}
	.st272{fill:#C4755B;}
	.st273{fill:#FFE3A1;}
	.st274{fill-rule:evenodd;clip-rule:evenodd;fill:#D48C64;}
	.st275{fill:#DBD8DB;}
	.st276{fill:#BB5D4C;}
	.st277{fill:#465A61;}
	.st278{fill:#596C76;}
	.st279{fill:#E5E1E5;}
	.st280{fill:#7A8C98;}
	.st281{fill:#FEDBA6;}
	.st282{fill:#EAB14D;}
	.st283{fill:#617881;}
	.st284{fill:#E28086;}
	.st285{fill:#DD636E;}
	.st286{fill:#FFE07D;}
	.st287{fill:#ECBE6B;}
	.st288{fill:#E9EDF5;}
	.st289{fill:#CDD2E1;}
	.st290{fill:#FFAA00;}
	.st291{fill:#FF9500;}
	.st292{fill:#555A65;}
	.st293{fill:#333940;}
	.st294{fill:#E6A373;}
	.st295{fill:#CC8552;}
	.st296{fill:#FFDF40;}
	.st297{fill:#FFBE40;}
	.st298{fill:#FF9F40;}
	.st299{fill:#F77E00;}
	.st300{fill:#FFF04A;}
	.st301{fill:#00DDC1;}
	.st302{fill:#A24603;}
	.st303{fill:#F2D813;}
	.st304{fill:#803602;}
	.st305{fill:#3A3A3A;}
	.st306{fill:#AFAFAF;}
	.st307{fill:#686868;}
	.st308{fill:#925A15;}
	.st309{fill:#F3F2F6;}
	.st310{fill:#BF7D5A;}
	.st311{fill:#AA6256;}
	.st312{fill:#894E46;}
	.st313{fill:#DBA660;}
	.st314{fill:#E49542;}
	.st315{fill:#F9EFDA;}
	.st316{fill:#756E78;}
	.st317{fill:#665E66;}
	.st318{fill:#F9F6F9;}
	.st319{fill:#BC6C59;}
	.st320{fill:#994B39;}
	.st321{fill:#FEEC96;}
	.st322{fill:#F5DB64;}
	.st323{fill:#5D5E69;}
	.st324{fill:#FFE09F;}
	.st325{fill:#ECBD83;}
	.st326{fill:#F6D190;}
	.st327{fill:#FF8086;}
	.st328{fill:#E5646E;}
	.st329{fill:#357DA3;}
	.st330{fill:#F48A3B;}
	.st331{fill:#FFC233;}
	.st332{fill:#CDDEE0;}
	.st333{fill:#C8C5C9;}
	.st334{fill:#785353;}
	.st335{fill:#6E4848;}
	.st336{fill:#B7E4F8;}
	.st337{fill:#93D6F4;}
	.st338{fill:#DBF1FB;}
	.st339{fill:#8DCAFC;}
	.st340{fill:#64B9FC;}
	.st341{fill:#C4E1FF;}
	.st342{fill:#B5DBFD;}
	.st343{fill:#FEE7C9;}
	.st344{fill:#FFD496;}
	.st345{fill:#A3E440;}
	.st346{fill:#99D53B;}
	.st347{fill:#BCEA73;}
	.st348{fill:#C76D3D;}
	.st349{fill:#AA5E33;}
	.st350{fill:#D67F4F;}
	.st351{fill:#8DC637;}
	.st352{fill:#A79BA7;}
	.st353{fill:#7A6D79;}
	.st354{fill:#C4E2FF;}
	.st355{fill:#60B7FF;}
	.st356{fill:#B3DAFE;}
	.st357{fill:#F3F0F3;}
	.st358{fill:#EFEDEF;}
	.st359{fill:#CBC4CC;}
	.st360{fill:#26A6FE;}
	.st361{fill:#D2555A;}
	.st362{fill:#FF6464;}
	.st363{fill:#D7DEED;}
	.st364{fill:#B8BFD4;}
	.st365{fill:#959CB3;}
	.st366{fill:#F8C460;}
	.st367{fill:#FAAF42;}
	.st368{fill:#7A838B;}
	.st369{fill:#5D6972;}
	.st370{fill:#A7D0E1;}
	.st371{fill:#80BBCE;}
	.st372{fill:#FFD8CA;}
	.st373{fill:#FFBFAE;}
	.st374{fill:#FFE5D8;}
	.st375{fill:#E5EEF9;}
	.st376{fill:#56595E;}
	.st377{fill:#7F8284;}
	.st378{fill:#A5A5A4;}
	.st379{fill:#95A5A5;}
	.st380{fill:#BDC3C7;}
	.st381{fill:#7F8C8D;}
</style>
<g id="Acoustic_Grand_Keyboard">
	<g>
		<g>
			<path class="st319" d="M11.31,13.42c0,0.87,0.7,1.57,1.57,1.57h8.48c0.87,0,1.57-0.7,1.57-1.57V8.67H11.31V13.42z"/>
			<path class="st320" d="M19.97,8.67v4.76c0,0.87-0.7,1.57-1.57,1.57h2.96c0.87,0,1.57-0.7,1.57-1.57V8.67H19.97z"/>
			<path class="st321" d="M21.36,5.82h-8.48c-0.87,0-1.57,0.7-1.57,1.57v1.28h11.61V7.39C22.93,6.52,22.23,5.82,21.36,5.82z"/>
			<path class="st322" d="M21.36,5.82H18.4c0.87,0,1.57,0.7,1.57,1.57v1.28h2.96V7.39C22.93,6.52,22.23,5.82,21.36,5.82z"/>
			<path class="st321" d="M37.16,7.39c0-0.87-0.7-1.57-1.57-1.57h-8.48c-0.87,0-1.57,0.7-1.57,1.57v1.28h11.61L37.16,7.39
				L37.16,7.39z"/>
			<path class="st322" d="M35.59,5.82h-2.96c0.87,0,1.57,0.7,1.57,1.57v1.28h2.96V7.39C37.16,6.52,36.46,5.82,35.59,5.82z"/>
			<path class="st319" d="M25.55,8.67v4.76c0,0.87,0.7,1.57,1.57,1.57h8.48c0.87,0,1.57-0.7,1.57-1.57V8.67H25.55z"/>
			<path class="st320" d="M34.2,8.67v4.76c0,0.87-0.7,1.57-1.57,1.57h2.96c0.87,0,1.57-0.7,1.57-1.57V8.67H34.2z"/>
		</g>
		<g>
			<g>
				<g>
					<path class="st323" d="M41.33,19.93v17.1c0,0.39-0.32,0.71-0.71,0.71c-0.39,0-0.71-0.32-0.71-0.71v-17.1"/>
				</g>
			</g>
			<g>
				<path class="st323" d="M47.29,41.87c-0.2,0-0.4-0.08-0.54-0.24l-6.16-7.09l-6.16,7.09c-0.26,0.3-0.71,0.33-1,0.07
					c-0.3-0.26-0.33-0.71-0.07-1L40.04,33c0.14-0.16,0.33-0.24,0.54-0.24h0.03c0.21,0,0.4,0.09,0.54,0.24l6.68,7.69
					c0.26,0.3,0.23,0.75-0.07,1C47.62,41.81,47.45,41.87,47.29,41.87z"/>
			</g>
		</g>
		<g>
			<path class="st323" d="M7.38,37.84c-0.39,0-0.71-0.32-0.71-0.71V15.95c0-0.39,0.32-0.71,0.71-0.71s0.71,0.32,0.71,0.71v21.18
				C8.09,37.52,7.77,37.84,7.38,37.84z"/>
		</g>
		<g>
			<path class="st319" d="M0.66,15.4v14.13c0,0.64,0.52,1.16,1.16,1.16h11.82c0.64,0,1.16-0.52,1.16-1.16V15.4H0.66z"/>
			<path class="st320" d="M11.91,15.4v14.13c0,0.64-0.52,1.16-1.16,1.16h2.89c0.64,0,1.16-0.52,1.16-1.16V15.4H11.91z"/>
			<path class="st321" d="M14.8,13.81c0-0.64-0.52-1.16-1.16-1.16H1.82c-0.64,0-1.16,0.52-1.16,1.16v1.6H14.8V13.81z"/>
			<path class="st322" d="M13.64,12.65h-2.89c0.64,0,1.16,0.52,1.16,1.16v1.6h2.89v-1.6C14.8,13.17,14.28,12.65,13.64,12.65z"/>
		</g>
		<g>
			<path class="st319" d="M33.68,21.28v2.73c0,0.64,0.52,1.16,1.16,1.16h11.82c0.64,0,1.16-0.52,1.16-1.16v-2.73H33.68z"/>
			<path class="st320" d="M44.92,21.28v2.73c0,0.64-0.52,1.16-1.16,1.16h2.89c0.64,0,1.16-0.52,1.16-1.16v-2.73H44.92z"/>
			<path class="st321" d="M47.81,19.73c0-0.64-0.52-1.16-1.16-1.16H34.83c-0.64,0-1.16,0.52-1.16,1.16v1.55h14.13V19.73z"/>
			<path class="st322" d="M46.65,18.58h-2.89c0.64,0,1.16,0.52,1.16,1.16v1.55h2.89v-1.55C47.81,19.1,47.29,18.58,46.65,18.58z"/>
		</g>
		<g>
			<path class="st323" d="M14.09,41.82c-0.2,0-0.4-0.08-0.54-0.25L7.4,34.49l-6.15,7.08c-0.26,0.3-0.71,0.33-1,0.07
				c-0.3-0.26-0.33-0.71-0.07-1l6.67-7.68c0.14-0.16,0.33-0.25,0.54-0.25h0.03c0.21,0,0.4,0.09,0.54,0.25l6.67,7.68
				c0.26,0.3,0.23,0.75-0.07,1C14.42,41.76,14.25,41.82,14.09,41.82z"/>
		</g>
		<g>
			<g>
				<path class="st323" d="M7.74,27.59c-0.39,0-0.71-0.32-0.71-0.71v-5.69c0-0.39,0.32-0.71,0.71-0.71s0.71,0.32,0.71,0.71v5.69
					C8.45,27.27,8.13,27.59,7.74,27.59z"/>
			</g>
			<g>
				<path class="st323" d="M4.32,27.59c-0.39,0-0.71-0.32-0.71-0.71v-5.69c0-0.39,0.32-0.71,0.71-0.71s0.71,0.32,0.71,0.71v5.69
					C5.03,27.27,4.71,27.59,4.32,27.59z"/>
			</g>
			<g>
				<path class="st323" d="M11.15,27.59c-0.39,0-0.71-0.32-0.71-0.71v-5.69c0-0.39,0.32-0.71,0.71-0.71c0.39,0,0.71,0.32,0.71,0.71
					v5.69C11.86,27.27,11.54,27.59,11.15,27.59z"/>
			</g>
		</g>
		<g>
			<g>
				<path class="st323" d="M37.38,25.17v-1.61c0-0.39,0.32-0.71,0.71-0.71c0.39,0,0.71,0.32,0.71,0.71v1.61"/>
			</g>
			<g>
				<path class="st323" d="M42.69,25.17v-1.61c0-0.39,0.32-0.71,0.71-0.71c0.39,0,0.71,0.32,0.71,0.71v1.61"/>
			</g>
		</g>
		<g>
			<g>
				<path class="st323" d="M28.46,41.82c-0.39,0-0.71-0.32-0.71-0.71V12.65c0-0.25,0.13-0.48,0.35-0.61L29.85,11
					c0.34-0.2,0.77-0.09,0.98,0.25c0.2,0.34,0.09,0.77-0.25,0.98l-1.41,0.84v28.05C29.17,41.5,28.85,41.82,28.46,41.82z"/>
			</g>
			<g>
				<path class="st323" d="M20.02,42.18c-0.39,0-0.71-0.32-0.71-0.71V13.01l-1.27-0.93c-0.32-0.23-0.39-0.68-0.16-0.99
					c0.23-0.32,0.68-0.39,0.99-0.16l1.57,1.14c0.18,0.13,0.29,0.35,0.29,0.58v28.81C20.73,41.86,20.41,42.18,20.02,42.18z"/>
			</g>
		</g>
	</g>
</g>
<g id="Layer_2">
</g>
</svg>

<svg id="Acoustic_Grand_Keyboard" data-name="Acoustic Grand Keyboard" xmlns="http://www.w3.org/2000/svg" viewBox="0 0 48 48"><defs><style>.cls-1{fill:#bc6c59;}.cls-2{fill:#994b39;}.cls-3{fill:#feec96;}.cls-4{fill:#f5db64;}.cls-5{fill:#5d5e69;}</style></defs><path class="cls-1" d="M11.31,13.42A1.57,1.57,0,0,0,12.88,15h8.48a1.57,1.57,0,0,0,1.57-1.57V8.67H11.31Z"/><path class="cls-2" d="M20,8.67v4.75A1.57,1.57,0,0,1,18.4,15h3a1.57,1.57,0,0,0,1.57-1.57V8.67Z"/><path class="cls-3" d="M21.36,5.82H12.88a1.57,1.57,0,0,0-1.57,1.57V8.67H22.93V7.39A1.57,1.57,0,0,0,21.36,5.82Z"/><path class="cls-4" d="M21.36,5.82h-3A1.57,1.57,0,0,1,20,7.39V8.67h3V7.39A1.57,1.57,0,0,0,21.36,5.82Z"/><path class="cls-3" d="M37.16,7.39a1.57,1.57,0,0,0-1.57-1.57H27.11a1.56,1.56,0,0,0-1.56,1.57V8.67H37.16V7.39Z"/><path class="cls-4" d="M35.59,5.82h-3A1.57,1.57,0,0,1,34.2,7.39V8.67h3V7.39A1.57,1.57,0,0,0,35.59,5.82Z"/><path class="cls-1" d="M25.55,8.67v4.75A1.56,1.56,0,0,0,27.11,15h8.48a1.57,1.57,0,0,0,1.57-1.57V8.67Z"/><path class="cls-2" d="M34.2,8.67v4.75A1.57,1.57,0,0,1,32.63,15h3a1.57,1.57,0,0,0,1.57-1.57V8.67Z"/><path class="cls-5" d="M41.33,19.93V37a.71.71,0,1,1-1.42,0V19.93"/><path class="cls-5" d="M47.29,41.87a.69.69,0,0,1-.54-.25l-6.16-7.09-6.16,7.09a.71.71,0,0,1-1.07-.93L40,33a.71.71,0,0,1,.54-.25h0a.69.69,0,0,1,.53.25l6.69,7.69a.72.72,0,0,1-.07,1A.73.73,0,0,1,47.29,41.87Z"/><path class="cls-5" d="M7.38,37.84a.71.71,0,0,1-.71-.71V16a.71.71,0,0,1,1.42,0V37.13A.71.71,0,0,1,7.38,37.84Z"/><path class="cls-1" d="M.66,15.4V29.54a1.16,1.16,0,0,0,1.16,1.15H13.64a1.16,1.16,0,0,0,1.16-1.15V15.4Z"/><path class="cls-2" d="M11.91,15.4V29.54a1.16,1.16,0,0,1-1.16,1.15h2.89a1.16,1.16,0,0,0,1.16-1.15V15.4Z"/><path class="cls-3" d="M14.8,13.81a1.16,1.16,0,0,0-1.16-1.16H1.82A1.16,1.16,0,0,0,.66,13.81V15.4H14.8Z"/><path class="cls-4" d="M13.64,12.65H10.75a1.16,1.16,0,0,1,1.16,1.16V15.4H14.8V13.81A1.16,1.16,0,0,0,13.64,12.65Z"/><path class="cls-1" d="M33.68,21.28V24a1.14,1.14,0,0,0,1.15,1.15H46.65A1.15,1.15,0,0,0,47.81,24V21.28Z"/><path class="cls-2" d="M44.92,21.28V24a1.15,1.15,0,0,1-1.16,1.15h2.9A1.15,1.15,0,0,0,47.81,24V21.28Z"/><path class="cls-3" d="M47.81,19.73a1.16,1.16,0,0,0-1.15-1.15H34.83a1.15,1.15,0,0,0-1.15,1.15v1.55H47.81Z"/><path class="cls-4" d="M46.65,18.58H43.76a1.16,1.16,0,0,1,1.16,1.15v1.55h2.89V19.73A1.16,1.16,0,0,0,46.65,18.58Z"/><path class="cls-5" d="M14.09,41.82a.71.71,0,0,1-.54-.24L7.4,34.49,1.25,41.58a.72.72,0,0,1-1,.07.73.73,0,0,1-.07-1L6.85,33a.69.69,0,0,1,.54-.25h0A.69.69,0,0,1,8,33l6.67,7.68a.71.71,0,0,1-.07,1A.73.73,0,0,1,14.09,41.82Z"/><path class="cls-5" d="M7.74,27.59A.71.71,0,0,1,7,26.88V21.19a.71.71,0,0,1,1.42,0v5.69A.71.71,0,0,1,7.74,27.59Z"/><path class="cls-5" d="M4.32,27.59a.71.71,0,0,1-.71-.71V21.19a.71.71,0,0,1,1.42,0v5.69A.71.71,0,0,1,4.32,27.59Z"/><path class="cls-5" d="M11.15,27.59a.71.71,0,0,1-.71-.71V21.19a.71.71,0,0,1,1.42,0v5.69A.71.71,0,0,1,11.15,27.59Z"/><path class="cls-5" d="M37.38,25.17V23.56a.71.71,0,0,1,1.42,0v1.61"/><path class="cls-5" d="M42.69,25.17V23.56a.71.71,0,0,1,1.42,0v1.61"/><path class="cls-5" d="M28.46,41.82a.71.71,0,0,1-.71-.71V12.65A.71.71,0,0,1,28.1,12l1.75-1a.71.71,0,1,1,.73,1.22l-1.41.84V41.11A.71.71,0,0,1,28.46,41.82Z"/><path class="cls-5" d="M20,42.18a.71.71,0,0,1-.72-.71V13L18,12.09a.7.7,0,0,1-.15-1,.71.71,0,0,1,1-.16l1.56,1.14a.68.68,0,0,1,.3.57V41.47A.71.71,0,0,1,20,42.18Z"/></svg>
